build/images/vk-logo.svg

<?xml version="1.0" encoding="UTF-8"?>
<svg xmlns="http://www.w3.org/2000/svg" xmlns:xlink="http://www.w3.org/1999/xlink" width="40pt" height="40pt" viewBox="0 0 40 40" version="1.1">
<g id="surface1">
<path style=" stroke:none;fill-rule:nonzero;fill:rgb(0%,0%,0%);fill-opacity:1;" d="M 20.242188 32.5 C 26.027344 32.5 23.964844 28.835938 24.410156 27.785156 C 24.40625 26.996094 24.398438 26.238281 24.425781 25.78125 C 24.792969 25.882812 25.65625 26.320312 27.441406 28.058594 C 30.203125 30.839844 30.90625 32.5 33.136719 32.5 L 37.238281 32.5 C 38.535156 32.5 39.214844 31.960938 39.550781 31.511719 C 39.878906 31.074219 40.199219 30.308594 39.847656 29.113281 C 38.933594 26.238281 33.597656 21.277344 33.265625 20.753906 C 33.316406 20.660156 33.394531 20.53125 33.4375 20.464844 L 33.433594 20.464844 C 34.488281 19.070312 38.507812 13.046875 39.097656 10.636719 C 39.101562 10.636719 39.101562 10.628906 39.101562 10.625 C 39.421875 9.523438 39.128906 8.8125 38.824219 8.410156 C 38.367188 7.804688 37.640625 7.5 36.660156 7.5 L 32.558594 7.5 C 31.183594 7.5 30.144531 8.191406 29.617188 9.453125 C 28.734375 11.695312 26.257812 16.304688 24.402344 17.9375 C 24.34375 15.625 24.382812 13.859375 24.414062 12.546875 C 24.472656 9.988281 24.667969 7.5 22.011719 7.5 L 15.566406 7.5 C 13.902344 7.5 12.308594 9.316406 14.035156 11.472656 C 15.539062 13.363281 14.574219 14.417969 14.898438 19.660156 C 13.632812 18.300781 11.378906 14.632812 9.785156 9.945312 C 9.339844 8.675781 8.664062 7.5 6.757812 7.5 L 2.65625 7.5 C 0.992188 7.5 0 8.410156 0 9.925781 C 0 13.335938 7.546875 32.5 20.242188 32.5 Z M 6.757812 10 C 7.121094 10 7.15625 10 7.425781 10.761719 C 9.058594 15.566406 12.714844 22.679688 15.390625 22.679688 C 17.398438 22.679688 17.398438 20.621094 17.398438 19.84375 L 17.398438 13.675781 C 17.285156 11.632812 16.542969 10.617188 16.054688 10 L 21.902344 10.007812 C 21.90625 10.035156 21.867188 16.832031 21.917969 18.476562 C 21.917969 20.816406 23.773438 22.15625 26.671875 19.222656 C 29.730469 15.773438 31.847656 10.613281 31.933594 10.402344 C 32.058594 10.101562 32.164062 10 32.558594 10 L 36.675781 10 C 36.675781 10.003906 36.675781 10.011719 36.671875 10.015625 C 36.296875 11.765625 32.597656 17.339844 31.359375 19.074219 C 31.339844 19.101562 31.320312 19.128906 31.300781 19.15625 C 30.757812 20.046875 30.3125 21.03125 31.375 22.414062 L 31.378906 22.414062 C 31.476562 22.53125 31.726562 22.804688 32.09375 23.183594 C 33.234375 24.359375 37.144531 28.382812 37.488281 29.984375 C 37.261719 30.019531 37.011719 29.992188 33.136719 30 C 32.308594 30 31.664062 28.769531 29.203125 26.285156 C 26.988281 24.132812 25.554688 23.25 24.246094 23.25 C 21.703125 23.25 21.890625 25.3125 21.914062 27.808594 C 21.921875 30.511719 21.90625 29.65625 21.921875 29.824219 C 21.773438 29.882812 21.351562 30 20.242188 30 C 9.667969 30 2.78125 13.214844 2.515625 10.007812 C 2.605469 10 3.867188 10.003906 6.757812 10 Z M 6.757812 10 "/>
</g>
</svg>

<svg xmlns="http://www.w3.org/2000/svg" width="40pt" height="40pt" viewBox="0 0 40 40"><path d="M20.242 32.5c5.785 0 3.723-3.664 4.168-4.715-.004-.789-.012-1.547.016-2.004.367.102 1.23.54 3.015 2.278 2.762 2.78 3.465 4.441 5.696 4.441h4.101c1.297 0 1.977-.54 2.313-.988.328-.438.648-1.203.297-2.399-.914-2.875-6.25-7.836-6.582-8.36.05-.093.129-.222.172-.288h-.004c1.054-1.395 5.074-7.418 5.664-9.828.004 0 .004-.008.004-.012.32-1.102.027-1.813-.278-2.215-.457-.605-1.183-.91-2.164-.91h-4.1c-1.375 0-2.414.691-2.942 1.953-.883 2.242-3.36 6.852-5.215 8.485-.058-2.313-.02-4.079.012-5.391.059-2.559.254-5.047-2.402-5.047h-6.446c-1.664 0-3.257 1.816-1.53 3.973 1.503 1.89.538 2.945.862 8.187-1.265-1.36-3.52-5.027-5.113-9.715C9.34 8.675 8.665 7.5 6.758 7.5H2.656C.992 7.5 0 8.41 0 9.926 0 13.336 7.547 32.5 20.242 32.5zM6.758 10c.363 0 .398 0 .668.762 1.633 4.804 5.289 11.918 7.965 11.918 2.007 0 2.007-2.059 2.007-2.836v-6.168c-.113-2.043-.855-3.059-1.343-3.676l5.847.008c.004.027-.035 6.824.016 8.469 0 2.34 1.855 3.68 4.754.746 3.058-3.45 5.176-8.61 5.262-8.82.125-.301.23-.403.625-.403h4.117c0 .004 0 .012-.004.016-.375 1.75-4.074 7.324-5.313 9.058l-.058.082c-.543.89-.988 1.875.074 3.258h.004c.098.117.348.39.715.77 1.14 1.175 5.05 5.199 5.394 6.8-.226.036-.476.008-4.351.016-.828 0-1.473-1.23-3.934-3.715-2.215-2.152-3.648-3.035-4.957-3.035-2.543 0-2.355 2.063-2.332 4.559.008 2.703-.008 1.847.008 2.015-.149.059-.57.176-1.68.176C9.668 30 2.782 13.215 2.516 10.008c.09-.008 1.351-.004 4.242-.008zm0 0"/></svg>
